img/illustrations/Accounting.svg

<svg width="145" height="145" viewBox="0 0 145 145" fill="none" xmlns="http://www.w3.org/2000/svg">
<path d="M5 121.07H15.94" stroke="#007B64" stroke-width="2" stroke-linecap="round" stroke-linejoin="round"/>
<path d="M19.0601 121.07H128.43" stroke="#007B64" stroke-width="2" stroke-linecap="round" stroke-linejoin="round"/>
<path d="M135.03 121.07H140" stroke="#007B64" stroke-width="2" stroke-linecap="round" stroke-linejoin="round"/>
<path d="M94.31 103V114.85C94.3139 115.656 94.1585 116.455 93.8528 117.201C93.547 117.947 93.0968 118.625 92.5281 119.197C91.9594 119.768 91.2834 120.222 90.539 120.531C89.7945 120.841 88.9962 121 88.19 121H33.09C32.2854 121 31.4888 120.841 30.7456 120.533C30.0025 120.225 29.3274 119.773 28.7589 119.204C28.1905 118.635 27.7399 117.959 27.433 117.215C27.126 116.471 26.9687 115.675 26.97 114.87V29.12C26.97 27.4969 27.6148 25.9402 28.7625 24.7925C29.9102 23.6448 31.4669 23 33.09 23H76.47L94.31 41.88" fill="white"/>
<path d="M26.97 85.48C26.97 85.48 31.2 95.39 46.89 100C58.06 103.29 64.38 108.35 67.39 121L30.83 120.83L27.77 118.9L26.98 116.53L26.97 85.48Z" fill="#F1F1F1"/>
<path d="M94.31 105.81V114.81C94.3192 115.62 94.1678 116.423 93.8644 117.174C93.561 117.924 93.1116 118.607 92.5424 119.183C91.9732 119.759 91.2954 120.216 90.5483 120.528C89.8012 120.839 88.9996 121 88.19 121H33.09C32.2854 121 31.4888 120.841 30.7456 120.533C30.0025 120.225 29.3274 119.773 28.7589 119.204C28.1905 118.635 27.7399 117.959 27.433 117.215C27.126 116.471 26.9687 115.675 26.97 114.87V29.12C26.97 27.4969 27.6148 25.9402 28.7625 24.7925C29.9102 23.6448 31.4669 23 33.09 23H76.03C76.1688 22.9991 76.3063 23.027 76.4337 23.0821C76.5611 23.1372 76.6756 23.2182 76.77 23.32L94.31 41.88" stroke="#007B64" stroke-width="2.04" stroke-linecap="round" stroke-linejoin="round"/>
<path d="M94.3101 42.14V51.27V72.42" stroke="#007B64" stroke-width="2" stroke-linecap="round" stroke-linejoin="round"/>
<path d="M86.1499 41.88H81.0499C80.2449 41.88 79.4478 41.7214 78.7041 41.4134C77.9603 41.1053 77.2846 40.6538 76.7154 40.0846C76.1461 39.5153 75.6946 38.8396 75.3865 38.0958C75.0785 37.3521 74.9199 36.555 74.9199 35.75V30.65" stroke="#007B64" stroke-width="2" stroke-linecap="round" stroke-linejoin="round"/>
<path d="M35.1499 45.69H61.6799" stroke="#FFC463" stroke-width="2" stroke-linecap="round" stroke-linejoin="round"/>
<path d="M35.1499 51.17H61.6799" stroke="#FFC463" stroke-width="2" stroke-linecap="round" stroke-linejoin="round"/>
<path d="M35.1499 40.21H61.6799" stroke="#FFC463" stroke-width="2" stroke-linecap="round" stroke-linejoin="round"/>
<path d="M116.09 121.07H44.3101C43.824 121.075 43.3416 120.984 42.8911 120.801C42.4405 120.619 42.0307 120.348 41.6856 120.006C41.3404 119.663 41.0667 119.256 40.8804 118.807C40.694 118.358 40.5988 117.876 40.6001 117.39V73.68C40.6001 73.1942 40.6963 72.7132 40.8831 72.2648C41.0699 71.8163 41.3436 71.4093 41.6885 71.0672C42.0334 70.7251 42.4427 70.4546 42.8926 70.2715C43.3426 70.0883 43.8243 69.996 44.3101 70H67.5201L76.2901 77.36H116.09C117.059 77.3599 117.989 77.7422 118.678 78.4237C119.367 79.1052 119.76 80.031 119.77 81V117.35C119.775 117.837 119.684 118.319 119.502 118.771C119.319 119.222 119.049 119.632 118.707 119.978C118.364 120.324 117.957 120.599 117.508 120.786C117.059 120.974 116.577 121.07 116.09 121.07V121.07Z" fill="white"/>
<path d="M40.6001 101.71C40.6001 101.71 65.0701 101.07 79.6001 110C92.6001 118 101.84 121 101.84 121H43.4001L41.2201 119.43L40.6301 115.43L40.6001 101.71Z" fill="#F1F1F1"/>
<path d="M116.09 121.07H44.3101C43.824 121.075 43.3416 120.984 42.8911 120.801C42.4405 120.619 42.0307 120.348 41.6856 120.006C41.3404 119.663 41.0667 119.256 40.8804 118.807C40.694 118.358 40.5988 117.876 40.6001 117.39V73.68C40.6001 73.1942 40.6963 72.7132 40.8831 72.2648C41.0699 71.8163 41.3436 71.4093 41.6885 71.0672C42.0334 70.7251 42.4427 70.4546 42.8926 70.2715C43.3426 70.0883 43.8243 69.996 44.3101 70H67.5201L76.2901 77.36H116.09C117.059 77.3599 117.989 77.7422 118.678 78.4237C119.367 79.1052 119.76 80.031 119.77 81V117.35C119.775 117.837 119.684 118.319 119.502 118.771C119.319 119.222 119.049 119.632 118.707 119.978C118.364 120.324 117.957 120.599 117.508 120.786C117.059 120.974 116.577 121.07 116.09 121.07V121.07Z" stroke="#007B64" stroke-width="2" stroke-linecap="round" stroke-linejoin="round"/>
<path d="M112.6 83H94.6001C94.0478 83 93.6001 83.4477 93.6001 84V89C93.6001 89.5523 94.0478 90 94.6001 90H112.6C113.152 90 113.6 89.5523 113.6 89V84C113.6 83.4477 113.152 83 112.6 83Z" fill="#FFC463"/>
</svg>

<svg width="145" height="145" fill="none" xmlns="http://www.w3.org/2000/svg"><path d="M5 121.07h10.94m3.12 0h109.37m6.6 0H140" stroke="#007B64" stroke-width="2" stroke-linecap="round" stroke-linejoin="round"/><path d="M94.31 103v11.85a6.122 6.122 0 01-6.12 6.15h-55.1a6.124 6.124 0 01-5.657-3.785 6.119 6.119 0 01-.463-2.345V29.12A6.12 6.12 0 0133.09 23h43.38l17.84 18.88" fill="#fff"/><path d="M26.97 85.48S31.2 95.39 46.89 100c11.17 3.29 17.49 8.35 20.5 21l-36.56-.17-3.06-1.93-.79-2.37-.01-31.05z" fill="#F1F1F1"/><path d="M94.31 105.81v9a6.123 6.123 0 01-3.762 5.718 6.138 6.138 0 01-2.358.472h-55.1a6.124 6.124 0 01-5.657-3.785 6.119 6.119 0 01-.463-2.345V29.12A6.12 6.12 0 0133.09 23h42.94a1 1 0 01.74.32l17.54 18.56" stroke="#007B64" stroke-width="2.04" stroke-linecap="round" stroke-linejoin="round"/><path d="M94.31 42.14v30.28m-8.16-30.54h-5.1a6.13 6.13 0 01-6.13-6.13v-5.1" stroke="#007B64" stroke-width="2" stroke-linecap="round" stroke-linejoin="round"/><path d="M35.15 45.69h26.53m-26.53 5.48h26.53M35.15 40.21h26.53" stroke="#FFC463" stroke-width="2" stroke-linecap="round" stroke-linejoin="round"/><path d="M116.09 121.07H44.31a3.67 3.67 0 01-3.71-3.68V73.68A3.68 3.68 0 0144.31 70h23.21l8.77 7.36h39.8a3.68 3.68 0 013.68 3.64v36.35a3.69 3.69 0 01-2.262 3.436 3.67 3.67 0 01-1.418.284z" fill="#fff"/><path d="M40.6 101.71s24.47-.64 39 8.29c13 8 22.24 11 22.24 11H43.4l-2.18-1.57-.59-4-.03-13.72z" fill="#F1F1F1"/><path d="M116.09 121.07H44.31a3.67 3.67 0 01-3.71-3.68V73.68A3.68 3.68 0 0144.31 70h23.21l8.77 7.36h39.8a3.68 3.68 0 013.68 3.64v36.35a3.69 3.69 0 01-2.262 3.436 3.67 3.67 0 01-1.418.284v0z" stroke="#007B64" stroke-width="2" stroke-linecap="round" stroke-linejoin="round"/><path d="M112.6 83h-18a1 1 0 00-1 1v5a1 1 0 001 1h18a1 1 0 001-1v-5a1 1 0 00-1-1z" fill="#FFC463"/></svg>
